X:1
T:Title
L:1/8
Q:1/4=100
M:4/4
K:F
V:1 treble nm="Church Organ, Staff"
V:1
 F3 G A2 c2 | B2 A2 G2 F2 | G2 A2 B2 d2 | G2 F2 F2 E2 | F3 G A2 F2 | =B2 G2 c2 d2 | e2 e2 e2 dc | %7
w: By~E.~Lancaster * * *|||||||
 =Bc d2 c4 |[M:9/8] AGF F2 E G3 | BAG G2 F A3 | c2 c c3 c2 B | dcB A3 G3 | GAG c3 A3 | cde f3 A3 | %14
w: |||||||
 d2 B- B/A/- A2- A<A z/ F/- | F/GFG/- G/F/- F2- F<F z |] %16
w: ||

